public/icon-mobility.svg

<svg fill="none" height="31" viewBox="0 0 30 31" width="30" xmlns="http://www.w3.org/2000/svg"><path clip-rule="evenodd" d="m27.856 0c1.1826 0 2.1436.962023 2.1436 2.14358v8.30792h-4.1613l-.0003-3.35536-4.9832 4.64036-2.8353-3.04609 4.8651-4.5301-3.5326.00098v-4.16129zm-17.2084 0v4.16129l-3.53292-.00098 4.86572 4.5301-2.83533 3.04609-4.98476-4.64036.00098 3.35536h-4.16129v-8.30792c0-1.181557.961048-2.14358 2.14357-2.14358zm10.2077 18.2973 4.9827 4.6381.0007-3.3531h4.1613v8.308c0 1.1825-.962 2.1436-2.1436 2.1436h-8.505v-4.1613l3.5342-.0004-4.8656-4.5288zm-11.70993 0 2.83533 3.0461-4.86602 4.5288 3.53342.0004v4.1613h-8.50501c-1.181555 0-2.14260216-.9611-2.14260216-2.1436v-8.308h4.16128216l-.00048 3.3531z" fill="#011580" fill-rule="evenodd"/></svg>

<svg width="30" height="31" viewBox="0 0 30 31" fill="none" xmlns="http://www.w3.org/2000/svg">
<path fill-rule="evenodd" clip-rule="evenodd" d="M27.856 0C29.0386 0 29.9996 0.962023 29.9996 2.14358V10.4515H25.8383L25.838 7.09614L20.8548 11.7365L18.0195 8.69041L22.8846 4.16031L19.352 4.16129V0H27.856ZM10.6476 0V4.16129L7.11468 4.16031L11.9804 8.69041L9.14507 11.7365L4.16031 7.09614L4.16129 10.4515H0V2.14358C0 0.962023 0.961048 0 2.14357 0H10.6476ZM20.8553 18.2973L25.838 22.9354L25.8387 19.5823H30V27.8903C30 29.0728 29.038 30.0339 27.8564 30.0339H19.3514V25.8726L22.8856 25.8722L18.02 21.3434L20.8553 18.2973ZM9.14537 18.2973L11.9807 21.3434L7.11468 25.8722L10.6481 25.8726V30.0339H2.14309C0.961535 30.0339 0.000487841 29.0728 0.000487841 27.8903V19.5823H4.16177L4.16129 22.9354L9.14537 18.2973Z" fill="#011580"/>
</svg>
